X: 495
T: Oseh Shalom
C: N.Hirsch
M: C
L: 1/8
Z: 2006 John Chambers <jc:trillian.mit.edu>
P: ABBCBB
K: Dm
DF\ 
P:A
| "Am"A3 A "Bb"A2 AA | "Am"A4- "Bb"A4 | "Bb"B2 BB "Gm"Bd cB | "Am"A4 "Dm"A4 
| "Gm"G2 G2 "Cb7"GB AG | "Dm"F4- "Bb"F2 "Gm"zF | "Gm"E>F G3 G A>G | "Dm"F2 "A7"E2 "Dm"D2 z2 
P:B
|: "D7"Ac BA "Gm"G4 | "Cb7"GB AG "F"F4 | "Dm"FA GF "E7"E2 EE |1 "A7"AG FG "Dm"A4 :|2 "A7"AG FE "Dm"D4 :|
P:C
|"Dm"Ad dc "Gm"d4 | "Am"Ac c=B c4 | "D7"Fd dc "Gm"d2cd | "E7"ed c=B "A7"A4 "^->B"|



